X:316
T:Reel 316
M:4/4
K:Ador
L:1/8
ED|CA,B,G, E,A,A,B,|CA,B,C DFED|CA,B,G, E,A,A,B,|CA,B,G, A,2:|CD|EAAG EFGD|EAAB c2BA|GFGE DB,G,B,|DCB,C A,G,A,B,|CB,CD EFGF|EAAB c2BA|GEFD ECDC|ECDB, A,2|
